icons/circle/48/the-final-station.svg

<svg version="1.1" viewBox="0 0 48 48" xmlns="http://www.w3.org/2000/svg">
 <defs>
  <linearGradient id="bg" x2="0" y1="1" y2="47" gradientUnits="userSpaceOnUse">
   <stop stop-color="#3d3d3d" offset="0"/>
   <stop stop-color="#333" offset="1"/>
  </linearGradient>
 </defs>
 <path d="m36.31 5c5.859 4.062 9.688 10.831 9.688 18.5 0 12.426-10.07 22.5-22.5 22.5-7.669 0-14.438-3.828-18.5-9.688 1.037 1.822 2.306 3.499 3.781 4.969 4.085 3.712 9.514 5.969 15.469 5.969 12.703 0 23-10.298 23-23 0-5.954-2.256-11.384-5.969-15.469-1.469-1.475-3.147-2.744-4.969-3.781zm4.969 3.781c3.854 4.113 6.219 9.637 6.219 15.719 0 12.703-10.297 23-23 23-6.081 0-11.606-2.364-15.719-6.219 4.16 4.144 9.883 6.719 16.219 6.719 12.703 0 23-10.298 23-23 0-6.335-2.575-12.06-6.719-16.219z" opacity=".05"/>
 <path d="m41.28 8.781c3.712 4.085 5.969 9.514 5.969 15.469 0 12.703-10.297 23-23 23-5.954 0-11.384-2.256-15.469-5.969 4.113 3.854 9.637 6.219 15.719 6.219 12.703 0 23-10.298 23-23 0-6.081-2.364-11.606-6.219-15.719z" opacity=".1"/>
 <path d="m31.25 2.375c8.615 3.154 14.75 11.417 14.75 21.13 0 12.426-10.07 22.5-22.5 22.5-9.708 0-17.971-6.135-21.12-14.75a23 23 0 0 0 44.875-7 23 23 0 0 0-16-21.875z" opacity=".2"/>
 <circle cx="24" cy="24" r="23" fill="url(#bg)"/>
 <path d="m40.03 7.531c3.712 4.084 5.969 9.514 5.969 15.469 0 12.703-10.297 23-23 23-5.954 0-11.384-2.256-15.469-5.969 4.178 4.291 10.01 6.969 16.469 6.969 12.703 0 23-10.298 23-23 0-6.462-2.677-12.291-6.969-16.469z" opacity=".1"/>
 <path transform="translate(1 1)" d="m24 10a9 9 0 0 0-5.1484 16.371l-3.8516 9.6289 9 3 9-3-3.8496-9.625a9 9 0 0 0-5.1504-16.375zm-1 10a2 1 0 0 0-2-1h-1a2 2 0 0 0 0 4 3 2 0 0 0 3-2zm2 0a2 1 0 0 1 2-1h1a2 2 0 0 1 0 4 3 2 0 0 1-3-2zm0 3a1.055 1.055 0 0 0-2 0l-1 3 2 0.5 2-0.5zm-5 4-3 8 2.5 0.71429 1.5-8.4643zm2 0.5-1.5 8.5 2.5 0.71429v-8.9643zm4 0 1.5 8.5-2.5 0.71429v-8.9643zm2-0.5 3 8-2.5 0.71429-1.5-8.4643z" fill-rule="evenodd" opacity=".1"/>
 <path d="m24 10a9 9 0 0 0-5.1484 16.371l-3.8516 9.6289 9 3 9-3-3.8496-9.625a9 9 0 0 0-5.1504-16.375zm-1 10a2 1 0 0 0-2-1h-1a2 2 0 0 0 0 4 3 2 0 0 0 3-2zm2 0a2 1 0 0 1 2-1h1a2 2 0 0 1 0 4 3 2 0 0 1-3-2zm0 3a1.055 1.055 0 0 0-2 0l-1 3 2 0.5 2-0.5zm-5 4-3 8 2.5 0.71429 1.5-8.4643zm2 0.5-1.5 8.5 2.5 0.71429v-8.9643zm4 0 1.5 8.5-2.5 0.71429v-8.9643zm2-0.5 3 8-2.5 0.71429-1.5-8.4643z" fill="#eee" fill-rule="evenodd"/>
</svg>

<svg xmlns="http://www.w3.org/2000/svg" version="1.1" viewBox="0 0 48 48">
	<defs>
		<linearGradient id="bg" gradientUnits="userSpaceOnUse" x1="0" x2="0" y1="1" y2="47">
			<stop offset="0" stop-color="#3d3d3d"/>
			<stop offset="1" stop-color="#333333"/>
		</linearGradient>
	</defs>
	<path opacity=".05" d="m 36.31 5 c 5.859 4.062 9.688 10.831 9.688 18.5 c 0 12.426 -10.07 22.5 -22.5 22.5 c -7.669 0 -14.438 -3.828 -18.5 -9.688 c 1.037 1.822 2.306 3.499 3.781 4.969 c 4.085 3.712 9.514 5.969 15.469 5.969 c 12.703 0 23 -10.298 23 -23 c 0 -5.954 -2.256 -11.384 -5.969 -15.469 c -1.469 -1.475 -3.147 -2.744 -4.969 -3.781 z m 4.969 3.781 c 3.854 4.113 6.219 9.637 6.219 15.719 c 0 12.703 -10.297 23 -23 23 c -6.081 0 -11.606 -2.364 -15.719 -6.219 c 4.16 4.144 9.883 6.719 16.219 6.719 c 12.703 0 23 -10.298 23 -23 c 0 -6.335 -2.575 -12.06 -6.719 -16.219 z"/>
	<path opacity=".1" d="m 41.28 8.781 c 3.712 4.085 5.969 9.514 5.969 15.469 c 0 12.703 -10.297 23 -23 23 c -5.954 0 -11.384 -2.256 -15.469 -5.969 c 4.113 3.854 9.637 6.219 15.719 6.219 c 12.703 0 23 -10.298 23 -23 c 0 -6.081 -2.364 -11.606 -6.219 -15.719 z"/>
	<path opacity=".2" d="m 31.25 2.375 c 8.615 3.154 14.75 11.417 14.75 21.13 c 0 12.426 -10.07 22.5 -22.5 22.5 c -9.708 0 -17.971 -6.135 -21.12 -14.75 a 23 23 0 0 0 44.875 -7 a 23 23 0 0 0 -16 -21.875 z"/>
	<circle fill="url(#bg)" cx="24" cy="24" r="23"/>
	<path opacity=".1" d="m 40.03 7.531 c 3.712 4.084 5.969 9.514 5.969 15.469 0 12.703 -10.297 23 -23 23 c -5.954 0 -11.384 -2.256 -15.469 -5.969 4.178 4.291 10.01 6.969 16.469 6.969 c 12.703 0 23 -10.298 23 -23 0 -6.462 -2.677 -12.291 -6.969 -16.469 z"/>
	<path d="M 24 10 A 9 9 0 0 0 18.851562 26.371094 L 15 36 L 24 39 L 33 36 L 29.150391 26.375 A 9 9 0 0 0 24 10 z M 23,20 a 2,1,0,0,0,-2,-1 h -1 a 2,2,0,0,0,0,4 3,2,0,0,0,3,-2 z M 25,20 a 2,1,0,0,1,2,-1 h 1 a 2,2,0,0,1,0,4 3,2,0,0,1,-3,-2 z M 25,23 A 1.055,1.055,0,0,0,23,23 L 22,26 24,26.5 26,26 Z M 20,27 17,35 19.5,35.714285714285715 21,27.25 Z M 22,27.5 20.5,36.0 23,36.714285714285715 23,27.75 Z M 26,27.5 27.5,36.0 25,36.714285714285715 25,27.75 Z M 28,27 31,35 28.5,35.714285714285715 27,27.25 Z" fill-rule="evenodd" opacity=".1" transform="translate(1 1)"/>
	<path d="M 24 10 A 9 9 0 0 0 18.851562 26.371094 L 15 36 L 24 39 L 33 36 L 29.150391 26.375 A 9 9 0 0 0 24 10 z M 23,20 a 2,1,0,0,0,-2,-1 h -1 a 2,2,0,0,0,0,4 3,2,0,0,0,3,-2 z M 25,20 a 2,1,0,0,1,2,-1 h 1 a 2,2,0,0,1,0,4 3,2,0,0,1,-3,-2 z M 25,23 A 1.055,1.055,0,0,0,23,23 L 22,26 24,26.5 26,26 Z M 20,27 17,35 19.5,35.714285714285715 21,27.25 Z M 22,27.5 20.5,36.0 23,36.714285714285715 23,27.75 Z M 26,27.5 27.5,36.0 25,36.714285714285715 25,27.75 Z M 28,27 31,35 28.5,35.714285714285715 27,27.25 Z" fill-rule="evenodd" fill="#eee"/>
</svg>
